icon-themes/sifr_svg/cmd/lc_convertinto3d.svg

<svg viewBox="0 0 24 24" xmlns="http://www.w3.org/2000/svg"><path d="m10 2-7 7v4h2v-2h9v9h-1v2h3l7-6v-14zm.699219 2h9.601562l-4.958984 5h-9.7656251zm10.300781 2.1523438v9.4257812l-5 4.421875v-8.796875l.177734-.203125zm-20 7.8476562v2a4 4 0 0 0 4 4h3.8222656l-1.5097656 1.28125c-.18267.19029-.3125.46186-.3125.71875v1h.4140625.5859375c.30945 0 .55232-.09029.75-.28125l3.25-2.84375v-1.705078c-1.083465-.958134-2.166532-2.068043-3.25-2.888672-.19768-.19095-.44055-.28125-.75-.28125h-.5859375-.4140625v1c0 .25689.12983.52846.3125.71875l1.5097656 1.28125h-3.8222656a2 2 0 0 1 -2-2v-2z" fill="#555753"/></svg>

<svg xmlns="http://www.w3.org/2000/svg" viewBox="0 0 24 24">
  <path
     style="fill:#555753"
     d="M 10 2 L 3 9 L 3 13 L 5 13 L 5 11 L 14 11 L 14 20 L 13 20 L 13 22 L 16 22 L 23 16 L 23 2 L 10 2 z M 10.699219 4 L 20.300781 4 L 15.341797 9 L 5.5761719 9 L 10.699219 4 z M 21 6.1523438 L 21 15.578125 L 16 20 L 16 11.203125 L 16.177734 11 L 21 6.1523438 z M 1 14 L 1 16 A 4 4 0 0 0 5 20 L 8.8222656 20 L 7.3125 21.28125 C 7.12983 21.47154 7 21.74311 7 22 L 7 23 L 7.4140625 23 L 8 23 C 8.30945 23 8.55232 22.90971 8.75 22.71875 L 12 19.875 L 12 18.169922 C 10.916535 17.211788 9.833468 16.101879 8.75 15.28125 C 8.55232 15.0903 8.30945 15 8 15 L 7.4140625 15 L 7 15 L 7 16 C 7 16.25689 7.12983 16.52846 7.3125 16.71875 L 8.8222656 18 L 5 18 A 2 2 0 0 1 3 16 L 3 14 L 1 14 z "
     />
</svg>
